X: 20421
T: John Egan's
R: hornpipe
M: 4/4
K: Gmajor
|:d>c|((3BAG) A>F G>ED2|B>GB>d g>dB>d|c>dA>d c>dA>g|f>de>f g>ed>c|
((3BAG)A>F G>ED2|B>GB>d g>dB>d|c>dA>d g>ed>c|((3BcB) G>FG2:|
|:B>c|((3ded) ^c>e d>BG>D|G>GG>B d>gf>g|e>fg>e d>BG>B|c>AB>GA>GE>D|
g2g>e d>GB>d|g>gg>e d>gf>g|e>fg>e d>cB>A|((3GAG) F>AG2:|

